X:1
L:1/4
Q:1/4=72
M:3/8
V:1
V:2 clef=bass 
K:C
[V:1] (3A,/4C/4E/4(3A/4c/4e/4(3d/4c/4B/4 | (3A/4c/4e/4(3a/4c'/4e'/4(3d'/4c'/4b/4 | (3a/4c'/4e'/4(3a'/4c''/4e''/4(3d''/4c''/4b'/4 | (3_b'/4a'/4^g'/4(3=g'/4^f'/4=f'/4(3e'/4_e'/4d'/4 |
[V:2] A,,,/ z/ [A,CE]/ | [A,CE]/ z/ [A,CE]/ | [A,CE]/ z/ [A,CE]/ | [A,CE]/ z |
